X:1
T:Kansas City, LM
T:William James Kirkpatrick, 1893
T:Kansas City, LM
T:Public Domain
C:William James Kirkpatrick, 1893
Z:Public Domain
%%score ( 1 2 ) ( 3 4 )
L:1/8
M:3/4
K:G
V:1 treble 
V:2 treble 
V:3 bass 
V:4 bass 
V:1
 [B,D][DG] [DA] | [GB]3 [GB] [Gc][GB] | [FA]3 D [DF][DG] | [FA]3 [FA] [GB][DA] | [DG]3 D [DG][GB] | %5
 [Gd]3 [GB] [FA][=FB] | [Ec]3 E [EB][EA] | [DG]3 [DG] [DF][DA] | [DG]3 x3 |] x3 |] %10
V:2
 x3 | x6 | x3 D x2 | x6 | x3 D x2 | x6 | x3 E x2 | x6 | x6 |] x3 |] %10
V:3
 G,[G,B,] x | [G,C] x5 | [G,D]3 [G,D] [G,E][G,D] | [D,D]3 [D,F,] [D,A,][D,B,] | %4
 [D,C]3 [D,C] [D,D][D,C] | [G,,B,]3 [G,B,] [G,B,][G,D] | [G,B,]3 [G,D] [G,C](B,/G,/) | %7
 [C,G,]3 [C,G,] [C,G,][C,C] | [D,B,]3 [D,B,] [D,A,][D,C] |] [G,,B,]3 |] %10
V:4
 G, x2 | x6 | x6 | x6 | x6 | x6 | x5 G, | x6 | x6 |] x3 |] %10

